X: 20813
T: Johnny Una's Braes
R: jig
M: 6/8
K: Gmajor
|:Bc|gdf d2c|B/c/dB GAB|cec ABG|FAF DEF|
GBG EFG|ABc d2 c|B/c/dB cAd|cAF G:|
|:zd|cAd cAa|fdB cAB|cAa fdB|cBA GFE|
GAB EFG|ABc d2 c|B/c/dB cAd|cAF G:|

